icons/media/disc-arrow-up-24.svg

<svg width="24" height="24" viewBox="0 0 24 24" fill="none" xmlns="http://www.w3.org/2000/svg">
<path d="M22.6389 19.7776L20.2947 17.6427V23.2526C20.2947 23.4508 20.2115 23.6409 20.0634 23.7811C19.9154 23.9213 19.7146 24 19.5052 24C19.2958 24 19.095 23.9213 18.9469 23.7811C18.7989 23.6409 18.7157 23.4508 18.7157 23.2526V17.6427L16.3715 19.7776C16.301 19.8504 16.216 19.9093 16.1213 19.9508C16.0267 19.9923 15.9243 20.0157 15.8201 20.0195C15.7158 20.0233 15.6118 20.0076 15.5141 19.9731C15.4163 19.9387 15.3267 19.8862 15.2505 19.8188C15.1743 19.7514 15.1129 19.6703 15.07 19.5803C15.027 19.4903 15.0034 19.3932 15.0003 19.2944C14.9973 19.1957 15.015 19.0974 15.0523 19.0052C15.0896 18.913 15.1459 18.8287 15.2178 18.7572L18.9283 15.2371C19.0022 15.1623 19.0915 15.1026 19.1907 15.0618C19.29 15.021 19.397 15 19.5052 15C19.6134 15 19.7204 15.021 19.8196 15.0618C19.9188 15.1026 20.0082 15.1623 20.082 15.2371L23.7926 18.7572C23.9331 18.9024 24.0075 19.0943 23.9994 19.2911C23.9913 19.4879 23.9015 19.6738 23.7495 19.8083C23.5975 19.9428 23.3955 20.015 23.1875 20.0092C22.9795 20.0035 22.7824 19.9203 22.6389 19.7776Z" fill="black"/>
<path fill-rule="evenodd" clip-rule="evenodd" d="M12 2.5C6.75329 2.5 2.5 6.75329 2.5 12C2.5 17.2467 6.75329 21.5 12 21.5C12.4142 21.5 12.75 21.8358 12.75 22.25C12.75 22.6642 12.4142 23 12 23C5.92487 23 1 18.0751 1 12C1 5.92487 5.92487 1 12 1C18.0751 1 23 5.92487 23 12C23 12.4142 22.6642 12.75 22.25 12.75C21.8358 12.75 21.5 12.4142 21.5 12C21.5 6.75329 17.2467 2.5 12 2.5Z" fill="black"/>
<path fill-rule="evenodd" clip-rule="evenodd" d="M12 13.5C12.8284 13.5 13.5 12.8284 13.5 12C13.5 11.1716 12.8284 10.5 12 10.5C11.1716 10.5 10.5 11.1716 10.5 12C10.5 12.8284 11.1716 13.5 12 13.5ZM12 15C13.6569 15 15 13.6569 15 12C15 10.3431 13.6569 9 12 9C10.3431 9 9 10.3431 9 12C9 13.6569 10.3431 15 12 15Z" fill="black"/>
</svg>

<svg xmlns="http://www.w3.org/2000/svg" width="24" height="24"><path d="M22.639 19.778l-2.344-2.135v5.61a.728.728 0 01-.232.528.812.812 0 01-.558.219.813.813 0 01-.558-.219.728.728 0 01-.231-.528v-5.61l-2.345 2.135a.825.825 0 01-1.121.041.75.75 0 01-.18-.239.714.714 0 01.148-.823l3.71-3.52a.792.792 0 01.263-.175.828.828 0 01.891.175l3.71 3.52a.723.723 0 01.207.534.731.731 0 01-.25.517.815.815 0 01-.561.201.81.81 0 01-.55-.231z"/><path fill-rule="evenodd" d="M12 2.5a9.5 9.5 0 100 19 .75.75 0 010 1.5C5.925 23 1 18.075 1 12S5.925 1 12 1s11 4.925 11 11a.75.75 0 01-1.5 0A9.5 9.5 0 0012 2.5z"/><path fill-rule="evenodd" d="M12 13.5a1.5 1.5 0 100-3 1.5 1.5 0 000 3zm0 1.5a3 3 0 100-6 3 3 0 000 6z"/></svg>
